X:5124
T:The Humours of Buckfast
M:4/4
R:Reel
L:1/8
Q:180
C:Aidan Crossey
K:G
G2BG dGBG|AcBA dBcA|G2BG dGBG|AcBA GBEF|
G2BG dGBG|AcBA dBcA|G2BG dGBG|AcBA GABd||
g2dg Bgdg|egfe afge|g2dg Bgdg|egfa g2g2|
g2dg Bgdg|egfe afge|g2dg Bgdg|egfa gBEF||
